resources/icons/color/link.svg

<svg width="64" height="64" viewBox="0 0 64 64" fill="none" xmlns="http://www.w3.org/2000/svg">
<path d="M6 13C6 9.13401 9.13401 6 13 6H51C54.866 6 58 9.13401 58 13V51C58 54.866 54.866 58 51 58H13C9.13401 58 6 54.866 6 51V13Z" fill="url(#paint0_linear_41743_63322)"/>
<path d="M6 13C6 9.13401 9.13401 6 13 6H51C54.866 6 58 9.13401 58 13V51C58 54.866 54.866 58 51 58H13C9.13401 58 6 54.866 6 51V13Z" fill="url(#paint1_radial_41743_63322)" fill-opacity="0.2"/>
<path fill-rule="evenodd" clip-rule="evenodd" d="M51 7H13C9.68629 7 7 9.68629 7 13V51C7 54.3137 9.68629 57 13 57H51C54.3137 57 57 54.3137 57 51V13C57 9.68629 54.3137 7 51 7ZM13 6C9.13401 6 6 9.13401 6 13V51C6 54.866 9.13401 58 13 58H51C54.866 58 58 54.866 58 51V13C58 9.13401 54.866 6 51 6H13Z" fill="url(#paint2_linear_41743_63322)"/>
<path d="M20 32C20 28.134 23.134 25 27 25H28.25C28.6642 25 29 25.3358 29 25.75C29 26.1642 28.6642 26.5 28.25 26.5H27C23.9624 26.5 21.5 28.9624 21.5 32C21.5 35.0376 23.9624 37.5 27 37.5H28.25C28.6642 37.5 29 37.8358 29 38.25C29 38.6642 28.6642 39 28.25 39H27C23.134 39 20 35.866 20 32Z" fill="url(#paint3_linear_41743_63322)"/>
<path d="M28 32.001C28 31.5868 28.3358 31.251 28.75 31.251L35.25 31.251C35.6642 31.251 36 31.5868 36 32.001C36 32.4152 35.6642 32.751 35.25 32.751L28.75 32.751C28.3358 32.751 28 32.4152 28 32.001Z" fill="url(#paint4_linear_41743_63322)"/>
<path d="M37 39C40.866 39 44 35.866 44 32C44 28.134 40.866 25 37 25H35.75C35.3358 25 35 25.3358 35 25.75C35 26.1642 35.3358 26.5 35.75 26.5L37 26.5C40.0376 26.5 42.5 28.9624 42.5 32C42.5 35.0376 40.0376 37.5 37 37.5H35.75C35.3358 37.5 35 37.8358 35 38.25C35 38.6642 35.3358 39 35.75 39H37Z" fill="url(#paint5_linear_41743_63322)"/>
<defs>
<linearGradient id="paint0_linear_41743_63322" x1="20.4444" y1="6" x2="27.0222" y2="58.6222" gradientUnits="userSpaceOnUse">
<stop stop-color="white"/>
<stop offset="1" stop-color="#EBEBEB"/>
</linearGradient>
<radialGradient id="paint1_radial_41743_63322" cx="0" cy="0" r="1" gradientUnits="userSpaceOnUse" gradientTransform="translate(22.6111 19.5417) rotate(56.3099) scale(49.4762 42.8159)">
<stop offset="0.177083" stop-color="white"/>
<stop offset="1" stop-color="#B8B8B8"/>
</radialGradient>
<linearGradient id="paint2_linear_41743_63322" x1="22.7917" y1="6" x2="29.7931" y2="58.5109" gradientUnits="userSpaceOnUse">
<stop stop-color="#BBBBBB"/>
<stop offset="1" stop-color="#888888"/>
</linearGradient>
<linearGradient id="paint3_linear_41743_63322" x1="20" y1="25" x2="32.1865" y2="45.8912" gradientUnits="userSpaceOnUse">
<stop stop-color="#EB6D00"/>
<stop offset="1" stop-color="#B85500"/>
</linearGradient>
<linearGradient id="paint4_linear_41743_63322" x1="20" y1="25" x2="32.1865" y2="45.8912" gradientUnits="userSpaceOnUse">
<stop stop-color="#EB6D00"/>
<stop offset="1" stop-color="#B85500"/>
</linearGradient>
<linearGradient id="paint5_linear_41743_63322" x1="20" y1="25" x2="32.1865" y2="45.8912" gradientUnits="userSpaceOnUse">
<stop stop-color="#EB6D00"/>
<stop offset="1" stop-color="#B85500"/>
</linearGradient>
</defs>
</svg>

<svg xmlns="http://www.w3.org/2000/svg" width="64" height="64" fill="currentColor"><path fill="url(#a)" d="M6 13a7 7 0 0 1 7-7h38a7 7 0 0 1 7 7v38a7 7 0 0 1-7 7H13a7 7 0 0 1-7-7V13Z"/><path fill="url(#b)" fill-opacity=".2" d="M6 13a7 7 0 0 1 7-7h38a7 7 0 0 1 7 7v38a7 7 0 0 1-7 7H13a7 7 0 0 1-7-7V13Z"/><path fill="url(#c)" fill-rule="evenodd" d="M51 7H13a6 6 0 0 0-6 6v38a6 6 0 0 0 6 6h38a6 6 0 0 0 6-6V13a6 6 0 0 0-6-6ZM13 6a7 7 0 0 0-7 7v38a7 7 0 0 0 7 7h38a7 7 0 0 0 7-7V13a7 7 0 0 0-7-7H13Z" clip-rule="evenodd"/><path fill="url(#d)" d="M20 32a7 7 0 0 1 7-7h1.25a.75.75 0 0 1 0 1.5H27a5.5 5.5 0 1 0 0 11h1.25a.75.75 0 0 1 0 1.5H27a7 7 0 0 1-7-7Z"/><path fill="url(#e)" d="M28 32.001a.75.75 0 0 1 .75-.75h6.5a.75.75 0 0 1 0 1.5h-6.5a.75.75 0 0 1-.75-.75Z"/><path fill="url(#f)" d="M37 39a7 7 0 1 0 0-14h-1.25a.75.75 0 0 0 0 1.5H37a5.5 5.5 0 1 1 0 11h-1.25a.75.75 0 0 0 0 1.5H37Z"/><defs><linearGradient id="a" x1="20.444" x2="27.022" y1="6" y2="58.622" gradientUnits="userSpaceOnUse"><stop stop-color="#fff"/><stop offset="1" stop-color="#EBEBEB"/></linearGradient><linearGradient id="c" x1="22.792" x2="29.793" y1="6" y2="58.511" gradientUnits="userSpaceOnUse"><stop stop-color="#BBB"/><stop offset="1" stop-color="#888"/></linearGradient><linearGradient id="d" x1="20" x2="32.187" y1="25" y2="45.891" gradientUnits="userSpaceOnUse"><stop stop-color="#EB6D00"/><stop offset="1" stop-color="#B85500"/></linearGradient><linearGradient id="e" x1="20" x2="32.187" y1="25" y2="45.891" gradientUnits="userSpaceOnUse"><stop stop-color="#EB6D00"/><stop offset="1" stop-color="#B85500"/></linearGradient><linearGradient id="f" x1="20" x2="32.187" y1="25" y2="45.891" gradientUnits="userSpaceOnUse"><stop stop-color="#EB6D00"/><stop offset="1" stop-color="#B85500"/></linearGradient><radialGradient id="b" cx="0" cy="0" r="1" gradientTransform="rotate(56.31 -6.951 30.895) scale(49.4762 42.8159)" gradientUnits="userSpaceOnUse"><stop offset=".177" stop-color="#fff"/><stop offset="1" stop-color="#B8B8B8"/></radialGradient></defs></svg>
